!!!OTL: Ma&szlig; und Ziel (101a), S. 251
!!!id: T0263
**kern
*clefG2
*k[f#]
*D:
{8d
8e
=1
4f#
8f#
8f#
8f#
8a
8g
8f#
=2
4f#
4e}
4r
=3
{8e
8f#
=4
4g
4g
8g
8b
8a
8g
=5
4g
4f#}
4r
=6
{8d
8f#
=7
4a
8a
8a
4a
8f#
8d
=8
2b}
4r
=9
{8dd
8b
=10
4a
8a
8a
4a
8g
8g
=11
8f#}
=12
{8f#
8f#
8f#
=13
4e
8b
8b
4a
8g
8e
=14
2d}
4r
==
*-
!!!minrhy: 8
!!!meters: 4/4 2/4 ]  ZZ[5
!!!cut: Ma&szlig; und Ziel (101a), S. 251
!!!reg: Luxemburg
!!!trd: Singendes Volk, Esch-Alzette 1937 posth.
!!!rhy1: XX  X_XXXXXX  X_X_0_
!!!rhy2: XX  X_X_XXXX  X_X_0_
!!!key: T0263  08  D 4/4 2/4 ]  ZZ[5
!!!mod: SECHSTONSKALA DUR ?]  AMBITUS[8
!!!kad: 23631
!!!akz: 333_444_556_553_251_
!!!fot: 'a__as'b__bw_c__
!!!for: 'a__b__c__cv_cv_
!!!fok: '^a_^a_~a_\__^d_
!! PHRAS[AUFTAKTIG]
!!!fkt: Liebeslieder
!!!bem1: Clerf, von Burschen und M&auml;dchen auf dem Jahrmarkt, 1900,
!!!bem2: mitgeteilt: hhh Heinrich Godefroid (Lehrer);
!!!bem3: (101b)- hhh Anton Koob, Liederheft, 1861
!! THILL, Mathias:
!! PR[24] 2K[2] 2G[10] 3K[8] 3G[2] 4A[8] 4Ü[0] 5A[0] 6K[0] 6G[4]
!! 7K[0] 7G[0] 8A[0] MEHR[0] SI[34] ABS[50] SR[12] SP[22]
!! ST[12] 2k[4] 2g[22] 3k[8] 3g[0] 4d[4] 4ü[0] 5d[4] 6k[0] 6g[0]
!! 7k[0] 7g[0] 8d[0] mehr[0] si[42] dm[-8] sr[26] sp[16]
!! 1F[36] 2F[51] 3F[4] 4F[0] LF[0] 2P[9] 3P[0] 4P[0] TRI[0] DF[4] AB[53]
!! TF[0] U3K[0] U3[2] U4[0] U4Ü[0] U5[24] U6K[0] U6[4] U7K[0] U7[6]
!! N1[24] N2K[0] N2[20] N3K[0] N3[14] N4[4] N4Ü[0] N5[4] N6K[0] N6[0]
!!!n7k: 0] N7[0] O1[0] O2K[0] O2[0] O3K[0] O3[0] HÖ[0
!!!RNB: symbol: &szlig; = sz ligature (UTF-8: ÃŸ)
!!!RNB: symbol: &auml;      = a umlaut  (UTF-8: Å„)
